X: 16322
T: Growling Dogs
R: reel
M: 4/4
K: Dmixolydian
|:"D"A,2DEF2D2|FGAB"C"c4|"G"dB c/B/A GBAG|
"D"AFDB,"C"C2CB,|"D"A,2DEF2D2|FGAB"C"c2Bc|
"G"dB c/B/A GBAF|1 "D"D8:|2 "D"D6(3ABc||
|:d2dB"C"c2Bc|"G"dBGB"D"A2(3ABc|"G"dB c/B/A GBAG|
"D"AFDB,"C"C2CB,|"D"A,2DEF2D2|FGAB"C"c2Bc|
"G"dB c/B/A GBAF|1 "D"D6(3ABc:|2 "D"D8||

